Hydrogen/cursors/24/dotbox.svg

<?xml version="1.0" encoding="UTF-8" standalone="no"?>
<svg
   width="200"
   height="200"
   viewBox="0 0 200 200"
   fill="none"
   version="1.1"
   id="svg25"
   xmlns="http://www.w3.org/2000/svg"
   xmlns:svg="http://www.w3.org/2000/svg">
  <g
     filter="url(#filter0_d)"
     id="g6"
     style="fill:#000000;stroke:#ffffff;stroke-width:5.27562;stroke-miterlimit:4;stroke-dasharray:none"
     transform="matrix(1.1379758,0,0,1.13664,-12.79758,-18.21056)">
    <path
       d="m 33,157 c 0,5.523 4.4772,10 10,10 h 114 c 5.523,0 10,-4.477 10,-10 V 43 c 0,-5.5228 -4.477,-10 -10,-10 H 43 C 37.4772,33 33,37.4772 33,43 Z M 40.8824,50.8823 c 0,-5.5228 4.4771,-9.9999 10,-9.9999 h 37.9099 c 4.2853,0 7.7592,3.4739 7.7592,7.7591 v 3.8181 c 0,2.1766 1.7645,3.9411 3.9415,3.9411 2.176,0 3.941,-1.7645 3.941,-3.9411 v -3.8181 c 0,-4.2852 3.474,-7.7591 7.759,-7.7591 h 36.925 c 5.523,0 10,4.4771 10,10 v 38.0331 c 0,4.0812 -3.309,7.3897 -7.39,7.3897 h -3.449 c -2.176,0 -3.941,1.7645 -3.941,3.9408 0,2.177 1.765,3.942 3.941,3.942 h 3.449 c 4.081,0 7.39,3.308 7.39,7.389 v 37.541 c 0,5.523 -4.477,10 -10,10 h -37.171 c -4.15,0 -7.513,-3.364 -7.513,-7.513 v -3.572 c 0,-2.177 -1.765,-3.941 -3.941,-3.941 -2.177,0 -3.9415,1.764 -3.9415,3.941 v 3.572 c 0,4.149 -3.3637,7.513 -7.5129,7.513 H 50.8824 c -5.5229,0 -10,-4.477 -10,-10 V 112.07 c 0,-4.353 3.529,-7.882 7.8823,-7.882 h 3.9412 c 2.1766,0 3.9412,-1.765 3.9412,-3.942 0,-2.1763 -1.7646,-3.9408 -3.9412,-3.9408 h -3.9412 c -4.3533,0 -7.8823,-3.5291 -7.8823,-7.8824 z"
       fill="#00FF00"
       id="path2"
       style="fill:#000000;stroke:#ffffff;stroke-width:5.27562;stroke-miterlimit:4;stroke-dasharray:none" />
    <path
       d="m 32,157 c 0,6.075 4.9249,11 11,11 h 114 c 6.075,0 11,-4.925 11,-11 V 43 c 0,-6.0751 -4.925,-11 -11,-11 H 43 C 36.9249,32 32,36.9249 32,43 Z M 41.8824,50.8823 c 0,-4.9705 4.0294,-8.9999 9,-8.9999 h 37.9099 c 3.733,0 6.7592,3.0261 6.7592,6.7591 v 3.8181 c 0,2.7289 2.2122,4.9411 4.9415,4.9411 2.729,0 4.941,-2.2122 4.941,-4.9411 v -3.8181 c 0,-3.7329 3.026,-6.7591 6.759,-6.7591 h 36.925 c 4.97,0 9,4.0294 9,9 v 38.0331 c 0,3.5289 -2.861,6.3897 -6.39,6.3897 h -3.449 c -2.729,0 -4.941,2.2122 -4.941,4.9408 0,2.729 2.212,4.942 4.941,4.942 h 3.449 c 3.529,0 6.39,2.86 6.39,6.389 v 37.541 c 0,4.97 -4.03,9 -9,9 h -37.171 c -3.597,0 -6.513,-2.916 -6.513,-6.513 v -3.572 c 0,-2.729 -2.212,-4.941 -4.941,-4.941 -2.7293,0 -4.9415,2.212 -4.9415,4.941 v 3.572 c 0,3.597 -2.9159,6.513 -6.5129,6.513 H 50.8824 c -4.9706,0 -9,-4.03 -9,-9 V 112.07 c 0,-3.801 3.0813,-6.882 6.8823,-6.882 h 3.9412 c 2.7289,0 4.9412,-2.213 4.9412,-4.942 0,-2.7286 -2.2123,-4.9408 -4.9412,-4.9408 h -3.9412 c -3.801,0 -6.8823,-3.0814 -6.8823,-6.8824 z"
       stroke="#00FF00"
       stroke-width="2"
       id="path4"
       style="fill:#000000;stroke:#ffffff;stroke-width:5.27562;stroke-miterlimit:4;stroke-dasharray:none" />
  </g>
  <defs
     id="defs23">
    <filter
       id="filter0_d"
       x="25"
       y="29"
       width="150"
       height="150"
       filterUnits="userSpaceOnUse"
       color-interpolation-filters="sRGB">
      <feFlood
         flood-opacity="0"
         result="BackgroundImageFix"
         id="feFlood8" />
      <feColorMatrix
         in="SourceAlpha"
         type="matrix"
         values="0 0 0 0 0 0 0 0 0 0 0 0 0 0 0 0 0 0 127 0"
         id="feColorMatrix10" />
      <feOffset
         dy="4"
         id="feOffset12" />
      <feGaussianBlur
         stdDeviation="3"
         id="feGaussianBlur14" />
      <feColorMatrix
         type="matrix"
         values="0 0 0 0 0 0 0 0 0 0 0 0 0 0 0 0 0 0 0.2 0"
         id="feColorMatrix16" />
      <feBlend
         mode="normal"
         in2="BackgroundImageFix"
         result="effect1_dropShadow"
         id="feBlend18" />
      <feBlend
         mode="normal"
         in="SourceGraphic"
         in2="effect1_dropShadow"
         result="shape"
         id="feBlend20" />
    </filter>
  </defs>
</svg>

<?xml version="1.0" encoding="UTF-8" standalone="no"?>
<svg
   width="200"
   height="200"
   viewBox="0 0 200 200"
   fill="none"
   version="1.1"
   id="svg25"
   xmlns="http://www.w3.org/2000/svg"
   xmlns:svg="http://www.w3.org/2000/svg">
  <g
     filter="url(#filter0_d)"
     id="g6"
     style="fill:#000000;stroke:#ffffff;stroke-width:5;stroke-miterlimit:4;stroke-dasharray:none">
    <path
       d="M33 157C33 162.523 37.4772 167 43 167H157C162.523 167 167 162.523 167 157V43C167 37.4772 162.523 33 157 33H43C37.4772 33 33 37.4772 33 43V157ZM40.8824 50.8823C40.8824 45.3595 45.3595 40.8824 50.8824 40.8824H88.7923C93.0776 40.8824 96.5515 44.3563 96.5515 48.6415V52.4596C96.5515 54.6362 98.316 56.4007 100.493 56.4007C102.669 56.4007 104.434 54.6362 104.434 52.4596V48.6415C104.434 44.3563 107.908 40.8824 112.193 40.8824H149.118C154.641 40.8824 159.118 45.3595 159.118 50.8824V88.9155C159.118 92.9967 155.809 96.3052 151.728 96.3052H148.279C146.103 96.3052 144.338 98.0697 144.338 100.246C144.338 102.423 146.103 104.188 148.279 104.188H151.728C155.809 104.188 159.118 107.496 159.118 111.577V149.118C159.118 154.641 154.641 159.118 149.118 159.118H111.947C107.797 159.118 104.434 155.754 104.434 151.605V148.033C104.434 145.856 102.669 144.092 100.493 144.092C98.316 144.092 96.5515 145.856 96.5515 148.033V151.605C96.5515 155.754 93.1878 159.118 89.0386 159.118H50.8824C45.3595 159.118 40.8824 154.641 40.8824 149.118V112.07C40.8824 107.717 44.4114 104.188 48.7647 104.188H52.7059C54.8825 104.188 56.6471 102.423 56.6471 100.246C56.6471 98.0697 54.8825 96.3052 52.7059 96.3052H48.7647C44.4114 96.3052 40.8824 92.7761 40.8824 88.4228V50.8823Z"
       fill="#00FF00"
       id="path2"
       style="fill:#000000;stroke:#ffffff;stroke-width:5;stroke-miterlimit:4;stroke-dasharray:none" />
    <path
       d="M32 157C32 163.075 36.9249 168 43 168H157C163.075 168 168 163.075 168 157V43C168 36.9249 163.075 32 157 32H43C36.9249 32 32 36.9249 32 43V157ZM41.8824 50.8823C41.8824 45.9118 45.9118 41.8824 50.8824 41.8824H88.7923C92.5253 41.8824 95.5515 44.9085 95.5515 48.6415V52.4596C95.5515 55.1885 97.7637 57.4007 100.493 57.4007C103.222 57.4007 105.434 55.1885 105.434 52.4596V48.6415C105.434 44.9086 108.46 41.8824 112.193 41.8824H149.118C154.088 41.8824 158.118 45.9118 158.118 50.8824V88.9155C158.118 92.4444 155.257 95.3052 151.728 95.3052H148.279C145.55 95.3052 143.338 97.5174 143.338 100.246C143.338 102.975 145.55 105.188 148.279 105.188H151.728C155.257 105.188 158.118 108.048 158.118 111.577V149.118C158.118 154.088 154.088 158.118 149.118 158.118H111.947C108.35 158.118 105.434 155.202 105.434 151.605V148.033C105.434 145.304 103.222 143.092 100.493 143.092C97.7637 143.092 95.5515 145.304 95.5515 148.033V151.605C95.5515 155.202 92.6356 158.118 89.0386 158.118H50.8824C45.9118 158.118 41.8824 154.088 41.8824 149.118V112.07C41.8824 108.269 44.9637 105.188 48.7647 105.188H52.7059C55.4348 105.188 57.6471 102.975 57.6471 100.246C57.6471 97.5174 55.4348 95.3052 52.7059 95.3052H48.7647C44.9637 95.3052 41.8824 92.2238 41.8824 88.4228V50.8823Z"
       stroke="#00FF00"
       stroke-width="2"
       id="path4"
       style="fill:#000000;stroke:#ffffff;stroke-width:5;stroke-miterlimit:4;stroke-dasharray:none" />
  </g>
  <defs
     id="defs23">
    <filter
       id="filter0_d"
       x="25"
       y="29"
       width="150"
       height="150"
       filterUnits="userSpaceOnUse"
       color-interpolation-filters="sRGB">
      <feFlood
         flood-opacity="0"
         result="BackgroundImageFix"
         id="feFlood8" />
      <feColorMatrix
         in="SourceAlpha"
         type="matrix"
         values="0 0 0 0 0 0 0 0 0 0 0 0 0 0 0 0 0 0 127 0"
         id="feColorMatrix10" />
      <feOffset
         dy="4"
         id="feOffset12" />
      <feGaussianBlur
         stdDeviation="3"
         id="feGaussianBlur14" />
      <feColorMatrix
         type="matrix"
         values="0 0 0 0 0 0 0 0 0 0 0 0 0 0 0 0 0 0 0.2 0"
         id="feColorMatrix16" />
      <feBlend
         mode="normal"
         in2="BackgroundImageFix"
         result="effect1_dropShadow"
         id="feBlend18" />
      <feBlend
         mode="normal"
         in="SourceGraphic"
         in2="effect1_dropShadow"
         result="shape"
         id="feBlend20" />
    </filter>
  </defs>
</svg>
